dist/icons/svgs/phone-solid.svg

<svg xmlns="http://www.w3.org/2000/svg" width="24" height="24" fill="currentcolor" class="icon-phone-solid" viewBox="0 0 24 24">
  <path d="M8.40625 2.97658L9.96875 6.72658C10.2422 7.35158 10.0859 8.09377 9.53906 8.52346L7.625 10.125C8.91406 12.8594 11.1406 15.086 13.875 16.375L15.4766 14.461C15.9062 13.9141 16.6484 13.7578 17.2734 14.0313L21.0234 15.5938C21.7656 15.8672 22.1172 16.6875 21.9219 17.4297L20.9844 20.8672C20.7891 21.5313 20.2031 22 19.5 22C9.8125 22 2 14.1875 2 4.50002C2 3.79689 2.46875 3.21096 3.13281 3.01564L6.57031 2.07814C7.3125 1.88283 8.13281 2.23439 8.40625 2.97658Z"/>
</svg>

<svg xmlns="http://www.w3.org/2000/svg" width="24" height="24" fill="currentColor" class="icon-phone-solid" viewBox="0 0 24 24">
  <path d="m8.406 2.977 1.563 3.75c.273.625.117 1.367-.43 1.796l-1.914 1.602a13.12 13.12 0 0 0 6.25 6.25l1.602-1.914c.43-.547 1.171-.703 1.796-.43l3.75 1.563c.743.273 1.094 1.094.899 1.836l-.938 3.437C20.79 21.531 20.204 22 19.5 22 9.813 22 2 14.188 2 4.5c0-.703.469-1.289 1.133-1.484l3.437-.938c.742-.195 1.563.156 1.836.899"/>
</svg>
